X: 202
T: Xiao shanyang (2)
L: 1/8
M: 3/4
K: C
C/ D/ E DC2D/ C/ [I:setbarnb 1]| 
[M:2/4]E D C C | 
C> D E3/ G/ | 
[M:3/4]D C C D E D | 
[M:2/4]D2G2 | 
E3D | 
DC3 | 
[M:3/4]E> CC2E C | 
[M:2/4]CE2D | 
[M:3/4]D2C4 | 
[M:2/4]D2E2 | 
E DE2 | 
D2C2 | 
C4 | 
C4 | 
C DE2 | 
DG3- | 
G4 | 
E4 | 
ED3 | 
C2D E | 
[M:3/4]C2D< E-E2 | 
[M:2/4]D2D C | 
CA,3 | 
G,2A,2 |]

@@@ Tune index: 8870
